X: 39972
T: Three Around Three
R: barndance
M: 4/4
K: Gmajor
|:B2|d2 BA G2 [D2G2]|AGAF G2 DD|EDEF G2 B2|c/d/c B/c/B B2 Ae|
d2 BA G2 GG|AGAF G2 D2|EDEF GABc|B/c/B A2 G2:|
|:ef|d2 ef gfed|e2 e2 e2 ge|d2 B2 B2 G2|AGAB A2 ce|
d2 ef gfed|e2 e2 e2 d2|ef g2 fgaf|g4- g2:|

